X:1
T:6 Lieder, Op.48
T:Die Ehre Gottes aus der Natur
T:6 Lieder, Op.48
T:Ludwig van Beethoven
T:4. Die Ehre Gottes aus der Natur
T:Christian Fürchtegott Gellert
T:OpenScore (CC0)
T:OpenScore (CC0)
C:Ludwig van Beethoven
Z:Christian Fürchtegott Gellert
Z:OpenScore (CC0)
%%score 1 { ( 2 5 ) | ( 3 4 ) }
L:1/8
Q:1/4=80
M:2/2
K:C
V:1 treble nm="Singstimme\nVoice"
V:2 treble nm="Pianoforte"
V:5 treble 
V:3 bass 
V:4 bass 
V:1
"^Majestätisch und erhaben" z2 | z8 | z4 z2 G2 | c4 G4 | E4 C2 e2 | e4 d2 c2 | %6
w: ||Die|Him- mel|rüh- men des|E- wi- gen|
 !fermata!c4 !fermata!B2 G2 | f4 d4 | B4 G4 | c4 (d3 B) | !fermata!c6 E2 | E6 E2 | E4 E2 E2 | %13
w: Eh- re, ihr|Schall pflanzt|sei- nen|Na- men *|fort. Ihn|rühmt der|Erd- kreis, ihn|
 F4 F2 F2 | F4 F2 F2 | ^F4 A4 | _B6 G2 | c4 d4 | !fermata!G6 z2 | z8 | z4 z2 _B2 | _e6 e2 | %22
w: prei- sen die|Mee- re; ver-|nimm, o|Mensch, ihr|gött- lich|Wort!||Wer|trägt der|
 _e2 e e e2 d c | c2 =B2 z4 | z4 z2 G2 | c6 c2 | c3 c B3 c | d4 z4 | z4 z2!mf! G2 | c4 G4 | %30
w: Him- mel- un- zähl- ba- re|Ster- ne?|Wer|führt die|Sonn' aus  ih- rem|Zelt?|Sie|kömmt und|
 =E4 C2 e2 | e4 d2 c2 | !fermata!c4 !fermata!B2 G2 | f4 d4 | B6 G2 | c4 d4 | e6 e2 | e6 e2 | %38
w: leuch- tet und|lacht uns von|fer- ne, und|läuft den|Weg gleich|als ein|Held, und|läuft den|
 f6 d2 | g4 G4 | c4 z4 | z8 | z4 z2 |] %43
w: Weg, gleich|als ein|Held.|||
V:2
!ff! [Gceg]2 | [cegc']6 C2 | C6 [G,G]2 | [Cc]4 G4 | E4 C2 [Ge]2 | ([Ge]4!>(! [Fd]2 [Ec]2)!>)! | %6
!p!{!fermata!B!fermata!c!fermata!d} !fermata![Ec]4 !fermata![DB]2!f! G2 | [Ff]4 [Dd]4 | %8
 [B,B]4 [G,G]4 | c4 d3 B | !fermata![CEc]6!p! E2 | [^G,B,E]6 [G,B,E]2 | [A,CE]4 [A,CE]2 [A,CE]2 | %13
"_cresc." [A,CF]2 [A,C_EF]2 [A,CEF]2 [A,CEF]2 | [_B,DF]2 [B,DF]2 [B,DF]2 [B,DF]2 | %15
!f! [CD^F]4 [CDA]4 | [_B,D_B]6 [G,G]2 | [Cc]4 [Dd]4 | !fermata![G,G]6!pp! [G,_B,_EG]2 | %19
 (.[G,_B,_EG]2!pp! .[G,B,EG]2 .[G,B,EG]2 .[G,B,EG]2) | %20
!pp! [G,_B,_EG]2!pp! [G,B,EG]2 [G,B,EG]2 [G,B,EG]2 | %21
!pp! [G,_B,_EG]2!pp! [G,B,EG]2 [G,B,EG]2 [G,B,EG]2 | %22
!pp! [G,_B,_EG]2!pp! [G,B,EG]2 [G,B,EG]2 [G,B,EG]2 | %23
!pp! [G,=B,FG]2!pp! [G,B,FG]2 [G,B,FG]2 [G,B,FG]2 | %24
!pp! [G,B,FG]2!pp! [G,B,FG]2 [G,B,FG]2 [G,B,FG]2 | [G,C_EG]2"_cresc." [CEGc]2 [CEGc]2 [CEGc]2 | %26
 [C^Fc]2 [CFc]2 [CFc]2 [CFc]2 | [DGB]2 [G,G]2 [G,G]2 [G,G]2 | %28
!pp!"_cresc." [B,D=FG]2 [B,DFG]2 [B,DFG]2 [B,DFG]2 |!f! [Cc]4 G4 | E4 C2 [Ge]2 | %31
 ([Ge]4!>(! [Fd]2 [Ec]2)!>)! |!p! !fermata![Ec]4 !fermata![DB]2!f! G2 | [Ff]4 [Dd]4 | %34
 [B,B]6 [G,G]2 |!f! [CEc]4!f! [DGBd]4 |"_cresc." [EGce]6 [EGce]2 |!ff! [EA^ce]6 [EAce]2 | %38
 [FAdf]6 [DAd]2 | [Gceg]4 [B,DGB]4 | [CEGc]6!ff! [egc'e']2 | [egc'e']6!ff! x2 | x4 x2 |] %43
V:3
 [C,,E,,G,,C,]2 | x6 [E,G,]2 | [E,G,]6 G,,2 | C,4 [G,,G,]4 | [E,,E,]4 [C,,C,]2 [C,G,]2 | %5
 ([C,G,]4 [B,,G,]2 [C,G,]2) | !fermata![G,,G,]4 !fermata![G,,,G,,]2 [G,,G,]2 | [F,,F,]4 [D,,D,]4 | %8
 [B,,,B,,]4 [G,,,G,,]4 | [_A,,,_A,,]4 [G,,,G,,]4 | !fermata![C,,C,]6 E,2 | [E,,E,]6 [E,,E,]2 | %12
 [A,,E,]4 [A,,E,]2 [A,,E,]2 | [F,,F,]2 [F,,F,]2 [F,,F,]2 [F,,F,]2 | %14
 [_B,,F,]2 [B,,F,]2 [B,,F,]2 [_B,,,B,,]2 | [A,,,A,,]4 [^F,,,^F,,]4 | [G,,,G,,]6 [_E,,_E,]2 | %17
 [C,,C,]4 [D,,D,]4 | !fermata![G,,,G,,]6 [_E,,_B,,_E,]2 | %19
 [_E,,_B,,_E,]2 [E,,B,,E,]2 [E,,B,,E,]2 [E,,B,,E,]2 | %20
 [_E,,_B,,_E,]2 [E,,B,,E,]2 [E,,B,,E,]2 [E,,B,,E,]2 | %21
 [_E,,_B,,_E,]2 [E,,B,,E,]2 [E,,B,,E,]2 [E,,B,,E,]2 | %22
 [_E,,_B,,_E,]2 [E,,B,,E,]2 [E,,B,,E,]2 [E,,B,,E,]2 | %23
 [D,,G,,D,]2 [D,,G,,D,]2 [D,,G,,D,]2 [D,,G,,D,]2 | %24
 [D,,G,,D,]2 [D,,G,,D,]2 [D,,G,,D,]2 [D,,G,,D,]2 | [C,,C,]2 [C,,C,]2 [C,,C,]2 [C,,C,]2 | %26
 [_A,,,_A,,]2 [A,,,A,,]2 [A,,,A,,]2 [A,,,A,,]2 | [G,,,G,,]2!pp! [G,,,G,,]2 [G,,,G,,]2 [G,,,G,,]2 | %28
 [G,,B,,D,=F,]2 [G,,B,,D,F,]2 [G,,B,,D,F,]2 [G,,B,,D,F,]2 | [C,,C,]4 [G,,G,]4 | %30
 [E,,E,]4 [C,,C,]2 [C,G,]2 | ([C,G,]4 [B,,G,]2 [C,G,]2) | %32
 !fermata![G,,G,]4 !fermata![G,,G,]2 [G,,G,]2 | [F,,F,]4 [D,,D,]4 | [B,,,B,,]6 [G,,,G,,]2 | %35
 [A,,,A,,]4 [G,,,G,,]4 | [C,,C,]6 [C,C]2 | [A,,^C,E,A,]6 [A,,C,E,A,]2 | [D,F,A,D]6 [F,,F,]2 | %39
 [G,,C,E,G,]4 [G,,,G,,]4 | [C,,E,,G,,C,]6 [C,,E,,G,,C,]2 | [C,,E,,G,,C,]6 [E,G,C]2 | %42
 !fermata![E,G,C]6 |] %43
V:4
 x2 | [C,,G,,C,]6 [C,,E,,G,,C,]2 | [C,,E,,G,,C,]6 x2 | x8 | x8 | x8 | x8 | x8 | x8 | x8 | x8 | x8 | %12
 x8 | x8 | x8 | x8 | x8 | x8 | x8 | x8 | x8 | x8 | x8 | x8 | x8 | x8 | x8 | x8 | x8 | x8 | x8 | %31
 x8 | x8 | x8 | x8 | x8 | x8 | x8 | x8 | x8 | x8 | x6 [C,,E,,G,,C,]2 | !fermata![C,,E,,G,,C,]6 |] %43
V:5
 x2 | x8 | x8 | x8 | x8 | x8 | x8 | x8 | x8 | [C^F]4 =F4 | x8 | x8 | x8 | x8 | x8 | x8 | x8 | x8 | %18
 x8 | x8 | x8 | x8 | x8 | x8 | x8 | x8 | x8 | x8 | x8 | x8 | x8 | x8 | x8 | x8 | x8 | x8 | x8 | %37
 x8 | x8 | x8 | x8 | x8 | x6 |] %43

